X: 38
T:Mwynen Cynwyd
T:The Melody of Cynwyd
M:6/8
L:1/8
Q:130
C:Trad
S:51 Welsh Airs
R:Jig
A:Wales
N:I'm not convinced by the last two bars of the A music.
N:Other versions have something like |BAB GcB|AGA F2:||
N:Similarly in bar 7 of the B music,  the  e and B would normally be
N:flattened.  BM.
N:         .
H:From a facsimile c.1840: A Choice Collection of Fifty-One Welsh Airs
H:adapted for The Harp, Piano-Forte, Harpsichord,
H:Violin, or Flute by Edward Jones
H:"Harper to His Late Majesty King George IV, when
H:Prince of Wales".
Z:brian_martin12345@yahoo.com
K:F
"Tenderly"
c|AFFF2F|FAc cBA|dGGG2G|B>cd dcB|AFFF2F|FAc cBA|BAB Gdc|BABG2:||
z|d2fd2f|d2f dBd|c2fc2f|c2f cAc|dGGG2G|B2c dcB|ecc d=BB|cd_e dcB|
AFFF2F|FAc cBA|dGGG2G|B>dc dcB|
(c3AF)A|(d3B)GB|(A>Bc) cdB|A>BGF3|
{CFA}(c3AF)A|(d3B)GB|A>Bc cdB|A>BGF2:||

